src/components/Home/HowItWorks/assets/how-ad.svg

<svg width="103" height="70" viewBox="0 0 103 70" fill="none" xmlns="http://www.w3.org/2000/svg">
<path d="M66 12.0001H22V44.0001H66V12.0001Z" fill="white"/>
<path fill-rule="evenodd" clip-rule="evenodd" d="M21.2852 12.0001C21.2852 11.6056 21.605 11.2857 21.9996 11.2857H65.9996C66.3941 11.2857 66.714 11.6056 66.714 12.0001V44.0001C66.714 44.3946 66.3941 44.7145 65.9996 44.7145H21.9996C21.605 44.7145 21.2852 44.3946 21.2852 44.0001V12.0001ZM22.7139 12.7145V43.2857H65.2852V12.7145H22.7139Z" fill="#010101"/>
<path fill-rule="evenodd" clip-rule="evenodd" d="M0.570312 2.00008C0.570312 1.21098 1.21 0.571289 1.9991 0.571289H85.9991C86.7882 0.571289 87.4279 1.21098 87.4279 2.00008V54.4892C87.4279 55.2783 86.7882 55.918 85.9991 55.918H1.9991C1.21 55.918 0.570312 55.2783 0.570312 54.4892V2.00008ZM3.4279 3.42887V53.0604H84.5703V3.42887H3.4279Z" fill="#010101"/>
<path fill-rule="evenodd" clip-rule="evenodd" d="M1.28516 59.346C1.28516 58.9515 1.605 58.6317 1.99955 58.6317H85.9995C86.3941 58.6317 86.7139 58.9515 86.7139 59.346C86.7139 59.7406 86.3941 60.0604 85.9995 60.0604H1.99955C1.605 60.0604 1.28516 59.7406 1.28516 59.346Z" fill="#010101"/>
<path fill-rule="evenodd" clip-rule="evenodd" d="M37.3309 20.0004C37.7128 20.0105 38.0556 20.2372 38.2142 20.5848L44.6055 34.5848C44.8349 35.0872 44.6136 35.6804 44.1111 35.9098C43.6087 36.1391 43.0155 35.9178 42.7862 35.4154L40.5232 30.4584H33.4977L30.8868 35.4626C30.6313 35.9523 30.0273 36.1421 29.5376 35.8866C29.048 35.6312 28.8582 35.0271 29.1136 34.5375L36.418 20.5375C36.5947 20.1988 36.949 19.9904 37.3309 20.0004ZM34.5412 28.4584H39.6102L37.2446 23.2768L34.5412 28.4584ZM47.5654 21.0001C47.5654 20.4478 48.0131 20.0001 48.5654 20.0001C49.7982 20.0001 52.3408 20.0674 54.6014 21.0704C55.7471 21.5787 56.8585 22.3434 57.6818 23.4945C58.5112 24.6541 59.0002 26.1393 59.0002 28.0001C59.0002 29.8609 58.5112 31.346 57.6818 32.5056C56.8585 33.6567 55.7471 34.4215 54.6014 34.9298C52.3408 35.9327 49.7982 36.0001 48.5654 36.0001C48.0131 36.0001 47.5654 35.5523 47.5654 35.0001V21.0001ZM49.5654 22.0221V33.9781C50.7788 33.9213 52.3797 33.7274 53.7903 33.1016C54.699 32.6985 55.4897 32.1325 56.055 31.3421C56.6142 30.5603 57.0002 29.4934 57.0002 28.0001C57.0002 26.5067 56.6142 25.4398 56.055 24.658C55.4897 23.8676 54.699 23.3017 53.7903 22.8985C52.3797 22.2727 50.7788 22.0788 49.5654 22.0221Z" fill="#010101"/>
<path d="M59.5385 46.071C59.5385 48.2781 57.4444 50.8991 58.1424 52.8303C58.8405 55.0374 62.0513 55.865 63.3077 57.5204C64.5641 59.3136 64.4245 62.6243 66.2393 63.8658C68.0541 65.1073 71.1253 64.0037 73.2193 64.6934C75.3133 65.3831 77.1281 68.142 79.3617 68.142C81.5953 68.142 83.4101 65.3831 85.5041 64.6934C87.5981 64.0037 90.8089 65.2452 92.4841 63.8658C94.2989 62.6243 94.0197 59.3136 95.4157 57.5204C96.6721 55.7271 99.8829 54.8994 100.581 52.8303C101.279 50.7611 99.1849 48.2781 99.1849 46.071C99.1849 43.8639 101.279 41.243 100.581 39.3118C99.8829 37.2426 96.6721 36.415 95.4157 34.6217C94.1593 32.8285 94.2989 29.5178 92.4841 28.2763C90.6693 27.0348 87.5981 28.1384 85.5041 27.4487C83.4101 26.7589 81.5953 24.0001 79.3617 24.0001C77.1281 24.0001 75.3133 26.7589 73.2193 27.4487C71.1253 28.1384 67.9145 26.8969 66.2393 28.2763C64.4245 29.5178 64.7037 32.8285 63.3077 34.6217C62.0513 36.415 58.8405 37.2426 58.1424 39.3118C57.4444 41.243 59.5385 43.8639 59.5385 46.071Z" fill="#B69538"/>
<path fill-rule="evenodd" clip-rule="evenodd" d="M75.383 24.3689C76.3423 23.6205 77.7072 22.6089 79.3622 22.6089C81.0173 22.6089 82.3822 23.6205 83.3414 24.3689C83.5133 24.5029 83.6736 24.6304 83.8272 24.7526C84.1606 25.0177 84.4625 25.2579 84.7824 25.4856C85.2355 25.8082 85.6095 26.0186 85.9398 26.1274C86.2738 26.2374 86.7008 26.2919 87.2529 26.3036C87.659 26.3122 88.0635 26.2982 88.5108 26.2827C88.6867 26.2766 88.8693 26.2702 89.0612 26.265C90.2661 26.2319 91.9401 26.2183 93.2701 27.1282C94.6402 28.0654 95.1598 29.6922 95.4963 30.8557C95.5633 31.0877 95.6231 31.3038 95.6802 31.5101C95.7877 31.8983 95.8855 32.2519 96.0045 32.6126C96.1799 33.1444 96.356 33.5386 96.5556 33.8235C96.7456 34.0947 97.0462 34.3784 97.4835 34.7025C97.8124 34.9462 98.157 35.17 98.5414 35.4196C98.6799 35.5095 98.8236 35.6028 98.9735 35.7016C99.9648 36.3546 101.368 37.3098 101.895 38.853C102.176 39.6406 102.15 40.4289 102.027 41.116C101.906 41.8003 101.67 42.4782 101.449 43.0731C101.383 43.2518 101.318 43.4216 101.256 43.5855C101.096 44.0047 100.951 44.3851 100.828 44.7749C100.66 45.305 100.577 45.7261 100.577 46.0711C100.577 46.4138 100.66 46.8247 100.826 47.3407C100.946 47.715 101.086 48.0763 101.242 48.4776C101.307 48.647 101.376 48.8234 101.447 49.011C101.865 50.1175 102.428 51.709 101.9 53.275C101.376 54.8266 99.9678 55.7856 98.9736 56.4405C98.8236 56.5393 98.6799 56.6326 98.5414 56.7226C98.157 56.9722 97.8124 57.1959 97.4835 57.4397C97.0462 57.7638 96.7456 58.0474 96.5556 58.3186C96.5422 58.3378 96.5283 58.3565 96.514 58.375C96.3006 58.6491 96.1168 59.028 95.9411 59.5429C95.8066 59.9373 95.6989 60.3396 95.5783 60.7899C95.5372 60.9433 95.4946 61.1023 95.449 61.2685C95.1391 62.3965 94.6681 64.0252 93.3206 64.9788C92.0223 66.012 90.2851 65.9766 89.0952 65.9283C88.8702 65.9191 88.6591 65.9084 88.457 65.8982C88.0301 65.8765 87.643 65.8569 87.2479 65.8583C86.6829 65.8603 86.2593 65.9096 85.9398 66.0148C85.6095 66.1236 85.2355 66.334 84.7824 66.6565C84.4626 66.8843 84.1606 67.1244 83.8272 67.3895C83.6736 67.5117 83.5133 67.6392 83.3414 67.7733C82.3822 68.5216 81.0173 69.5332 79.3622 69.5332C77.7072 69.5332 76.3423 68.5216 75.383 67.7733C75.2112 67.6392 75.0508 67.5117 74.8972 67.3895C74.5638 67.1244 74.2619 66.8843 73.942 66.6565C73.489 66.334 73.1149 66.1236 72.7846 66.0148C72.4507 65.9048 72.0236 65.8503 71.4715 65.8386C71.0654 65.83 70.6609 65.844 70.2136 65.8595C70.0377 65.8656 69.8551 65.8719 69.6633 65.8772C68.4583 65.9102 66.7843 65.9238 65.4543 65.014C64.0842 64.0767 63.5646 62.4499 63.2282 61.2864C63.1611 61.0544 63.1013 60.8384 63.0442 60.632C62.9368 60.2439 62.8389 59.8902 62.7199 59.5296C62.549 59.0114 62.3775 58.624 62.1842 58.3409C61.9977 58.1023 61.7026 57.8436 61.267 57.5362C60.9757 57.3305 60.6904 57.1484 60.3751 56.9471C60.1812 56.8233 59.9759 56.6922 59.7509 56.544C58.7267 55.8693 57.3448 54.8832 56.825 53.276C56.5489 52.4929 56.5754 51.7095 56.697 51.0262C56.8187 50.3419 57.0541 49.6639 57.2754 49.069C57.3418 48.8904 57.4065 48.7206 57.4688 48.5567C57.6283 48.1375 57.773 47.7571 57.8963 47.3673C58.0639 46.8372 58.1478 46.416 58.1478 46.0711C58.1478 45.7261 58.0639 45.305 57.8963 44.7749C57.773 44.3851 57.6283 44.0047 57.4688 43.5855C57.4065 43.4216 57.3418 43.2518 57.2754 43.0731C57.0541 42.4782 56.8187 41.8003 56.697 41.116C56.5747 40.4289 56.5486 39.6407 56.8295 38.8532C57.3567 37.3098 58.7596 36.3546 59.7509 35.7016C59.9009 35.6028 60.0445 35.5095 60.183 35.4196C60.5675 35.1699 60.912 34.9462 61.2409 34.7025C61.6782 34.3784 61.9788 34.0947 62.1688 33.8235C62.1822 33.8044 62.1961 33.7856 62.2104 33.7672C62.4238 33.4931 62.6077 33.1142 62.7833 32.5992C62.9178 32.2049 63.0256 31.8025 63.1461 31.3522C63.1872 31.1988 63.2298 31.0398 63.2755 30.8737C63.5853 29.7456 64.0563 28.1169 65.4038 27.1633C66.7021 26.1302 68.4393 26.1656 69.6292 26.2139C69.8542 26.223 70.0652 26.2337 70.2674 26.244C70.6943 26.2656 71.0814 26.2852 71.4765 26.2839C72.0416 26.2819 72.4652 26.2326 72.7846 26.1274C73.1149 26.0186 73.489 25.8082 73.942 25.4856C74.2619 25.2579 74.5638 25.0177 74.8972 24.7526C75.0509 24.6304 75.2112 24.5029 75.383 24.3689ZM75.5557 27.7521C75.0097 28.1409 74.3717 28.534 73.655 28.77C72.9274 29.0097 72.1644 29.0638 71.4862 29.0661C71.0132 29.0678 70.5023 29.042 70.0398 29.0187C69.8559 29.0094 69.6795 29.0005 69.5163 28.9939C68.1733 28.9393 67.4961 29.044 67.1241 29.3503C67.0923 29.3765 67.0593 29.4013 67.0252 29.4245C66.5967 29.7177 66.3078 30.3386 65.9584 31.6106C65.924 31.7358 65.8886 31.8683 65.8518 32.0059C65.7259 32.4766 65.5843 33.0059 65.4166 33.4974C65.1986 34.1368 64.8995 34.8329 64.4273 35.4487C63.9918 36.0605 63.4292 36.5438 62.8975 36.9378C62.4929 37.2377 62.0441 37.529 61.6404 37.791C61.5156 37.872 61.395 37.9503 61.2815 38.0251C60.1817 38.7496 59.6357 39.2389 59.4611 39.7565C59.4579 39.7659 59.4547 39.7753 59.4513 39.7847C59.3886 39.9581 59.3629 40.2163 59.4363 40.6287C59.5108 41.0479 59.6681 41.5252 59.883 42.1029C59.9332 42.2377 59.9876 42.3806 60.044 42.5289C60.2126 42.9718 60.3998 43.4638 60.5491 43.9359C60.7522 44.5784 60.9301 45.3125 60.9301 46.0711C60.9301 46.8297 60.7522 47.5638 60.5491 48.2062C60.3998 48.6783 60.2126 49.1703 60.044 49.6132C59.9876 49.7616 59.9332 49.9045 59.883 50.0393C59.6681 50.6169 59.5108 51.0942 59.4363 51.5135C59.3629 51.9258 59.3886 52.184 59.4513 52.3574C59.4577 52.3751 59.4637 52.3929 59.4694 52.4108C59.6542 52.9953 60.2172 53.5194 61.2815 54.2205C61.435 54.3217 61.608 54.4324 61.7891 54.5483C62.1462 54.7768 62.5353 55.0258 62.8714 55.263C63.4005 55.6364 63.9735 56.096 64.4163 56.6793C64.427 56.6934 64.4374 56.7077 64.4475 56.7221C64.8761 57.3339 65.1537 58.026 65.3622 58.6581C65.5018 59.0812 65.6316 59.5493 65.7499 59.976C65.8026 60.1659 65.853 60.3477 65.901 60.5136C66.2626 61.7641 66.5805 62.4134 67.0252 62.7176C67.5101 63.0493 68.2791 63.1318 69.5869 63.0959C69.7326 63.0919 69.8868 63.0866 70.0466 63.081C70.5193 63.0646 71.0403 63.0465 71.5304 63.0569C72.1998 63.0711 72.9419 63.1373 73.655 63.3721C74.3717 63.6082 75.0097 64.0013 75.5557 64.39C75.9384 64.6625 76.3342 64.9771 76.6937 65.263C76.8337 65.3742 76.9682 65.4812 77.0943 65.5795C78.1243 66.3831 78.7837 66.7509 79.3622 66.7509C79.9408 66.7509 80.6001 66.3831 81.6301 65.5795C81.7562 65.4812 81.8907 65.3742 82.0307 65.263C82.3902 64.9771 82.786 64.6625 83.1687 64.39C83.7147 64.0013 84.3528 63.6082 85.0694 63.3721C85.797 63.1325 86.56 63.0784 87.2383 63.076C87.7113 63.0744 88.2221 63.1001 88.6846 63.1235C88.8686 63.1327 89.0449 63.1416 89.2081 63.1483C90.5512 63.2028 91.2284 63.0982 91.6003 62.7919C91.6322 62.7657 91.6651 62.7409 91.6992 62.7176C92.1277 62.4245 92.4166 61.8035 92.766 60.5315C92.8004 60.4064 92.8359 60.2738 92.8727 60.1362C92.9986 59.6655 93.1401 59.1362 93.3078 58.6447C93.5259 58.0053 93.8249 57.3092 94.2972 56.6934C94.7326 56.0816 95.2953 55.5983 95.8269 55.2043C96.2315 54.9045 96.6804 54.6131 97.084 54.3511C97.2089 54.2701 97.3294 54.1919 97.443 54.1171C98.5427 53.3926 99.0887 52.9032 99.2633 52.3856C99.433 51.8824 99.2984 51.1978 98.8438 49.9939C98.7919 49.8566 98.7351 49.71 98.676 49.5573C98.5097 49.128 98.3246 48.6503 98.1776 48.194C97.9731 47.5591 97.7943 46.8319 97.7943 46.0711C97.7943 45.3125 97.9722 44.5784 98.1753 43.9359C98.3246 43.4638 98.5119 42.9718 98.6804 42.529C98.7369 42.3806 98.7912 42.2377 98.8414 42.1029C99.0563 41.5252 99.2136 41.0479 99.2882 40.6287C99.3615 40.2163 99.3358 39.9581 99.2731 39.7847L99.2713 39.7796C99.2686 39.7719 99.2659 39.7642 99.2633 39.7565C99.0887 39.2389 98.5427 38.7496 97.443 38.0251C97.3294 37.9503 97.2089 37.872 97.084 37.791C96.6804 37.529 96.2315 37.2377 95.8269 36.9378C95.287 36.5377 94.7151 36.0454 94.2769 35.42C93.8483 34.8083 93.5707 34.1161 93.3622 33.4841C93.2226 33.0609 93.0928 32.5928 92.9745 32.1661C92.9218 31.9762 92.8714 31.7944 92.8234 31.6286C92.4618 30.378 92.1439 29.7288 91.6992 29.4245C91.2144 29.0929 90.4453 29.0103 89.1375 29.0462C88.9918 29.0502 88.8376 29.0556 88.6778 29.0611C88.2051 29.0775 87.6841 29.0956 87.194 29.0852C86.5246 29.0711 85.7825 29.0049 85.0694 28.77C84.3528 28.534 83.7147 28.1409 83.1687 27.7521C82.786 27.4796 82.3902 27.165 82.0307 26.8792C81.8907 26.7679 81.7562 26.661 81.6301 26.5626C80.6001 25.7591 79.9408 25.3912 79.3622 25.3912C78.7837 25.3912 78.1244 25.7591 77.0943 26.5626C76.9682 26.661 76.8337 26.7679 76.6937 26.8792C76.3342 27.165 75.9384 27.4796 75.5557 27.7521Z" fill="#010101"/>
<path d="M78.3102 52.4616H81.2114C81.9809 52.4616 82.7188 52.1579 83.2629 51.6175C83.807 51.0771 84.1126 50.3441 84.1126 49.5798C84.1126 48.8155 83.807 48.0825 83.2629 47.5421C82.7188 47.0016 81.9809 46.698 81.2114 46.698H78.3102C76.7713 46.698 75.2955 46.0908 74.2073 45.0099C73.1191 43.929 72.5078 42.463 72.5078 40.9345C72.5078 39.4059 73.1191 37.9399 74.2073 36.859C75.2955 35.7781 76.7713 35.1709 78.3102 35.1709V33.73C78.3102 33.3479 78.4631 32.9814 78.7351 32.7112C79.0071 32.4409 79.3761 32.2891 79.7608 32.2891C80.1455 32.2891 80.5145 32.4409 80.7866 32.7112C81.0586 32.9814 81.2114 33.3479 81.2114 33.73V35.1709C82.7503 35.1709 84.2262 35.7781 85.3143 36.859C86.4025 37.9399 87.0138 39.4059 87.0138 40.9345C87.0138 41.3166 86.861 41.6831 86.589 41.9533C86.3169 42.2235 85.948 42.3753 85.5632 42.3753C85.1785 42.3753 84.8095 42.2235 84.5375 41.9533C84.2655 41.6831 84.1126 41.3166 84.1126 40.9345C84.1126 40.1702 83.807 39.4372 83.2629 38.8967C82.7188 38.3563 81.9809 38.0527 81.2114 38.0527H78.3102C77.5408 38.0527 76.8028 38.3563 76.2588 38.8967C75.7147 39.4372 75.409 40.1702 75.409 40.9345C75.409 41.6987 75.7147 42.4317 76.2588 42.9722C76.8028 43.5126 77.5408 43.8162 78.3102 43.8162H81.2114C82.7503 43.8162 84.2262 44.4235 85.3143 45.5043C86.4025 46.5852 87.0138 48.0512 87.0138 49.5798C87.0138 51.1084 86.4025 52.5744 85.3143 53.6552C84.2262 54.7361 82.7503 55.3433 81.2114 55.3433V56.7842C81.2114 57.1664 81.0586 57.5329 80.7866 57.8031C80.5145 58.0733 80.1455 58.2251 79.7608 58.2251C79.3761 58.2251 79.0071 58.0733 78.7351 57.8031C78.4631 57.5329 78.3102 57.1664 78.3102 56.7842V55.3433C76.7713 55.3433 75.2955 54.7361 74.2073 53.6552C73.1191 52.5744 72.5078 51.1084 72.5078 49.5798C72.5078 49.1976 72.6606 48.8311 72.9327 48.5609C73.2047 48.2907 73.5737 48.1389 73.9584 48.1389C74.3431 48.1389 74.7121 48.2907 74.9841 48.5609C75.2562 48.8311 75.409 49.1976 75.409 49.5798C75.409 50.3441 75.7147 51.0771 76.2588 51.6175C76.8028 52.1579 77.5408 52.4616 78.3102 52.4616Z" fill="#010101"/>
</svg>

<svg width="103" height="70" fill="none" xmlns="http://www.w3.org/2000/svg"><path d="M66 12H22v32h44V12z" fill="#fff"/><path fill-rule="evenodd" clip-rule="evenodd" d="M21.285 12c0-.394.32-.714.715-.714h44c.394 0 .714.32.714.714v32c0 .395-.32.715-.714.715H22a.714.714 0 0 1-.715-.715V12zm1.429.714v30.572h42.571V12.714H22.714z" fill="#010101"/><path fill-rule="evenodd" clip-rule="evenodd" d="M.57 2C.57 1.211 1.21.571 2 .571h84c.788 0 1.428.64 1.428 1.43v52.488c0 .79-.64 1.429-1.429 1.429H2c-.789 0-1.429-.64-1.429-1.429V2zM3.428 3.43V53.06H84.57V3.43H3.428zM1.285 59.346c0-.394.32-.714.715-.714h84a.714.714 0 1 1 0 1.428H2a.714.714 0 0 1-.715-.714z" fill="#010101"/><path fill-rule="evenodd" clip-rule="evenodd" d="M37.33 20a1 1 0 0 1 .884.585l6.392 14a1 1 0 1 1-1.82.83l-2.263-4.957h-7.025l-2.611 5.005a1 1 0 1 1-1.773-.925l7.304-14a1 1 0 0 1 .913-.538zm-2.789 8.458h5.07l-2.366-5.181-2.704 5.181zM47.565 21a1 1 0 0 1 1-1c1.233 0 3.776.067 6.036 1.07 1.146.509 2.258 1.273 3.08 2.424.83 1.16 1.32 2.645 1.32 4.506 0 1.86-.49 3.346-1.32 4.506-.822 1.15-1.934 1.916-3.08 2.424-2.26 1.003-4.803 1.07-6.036 1.07a1 1 0 0 1-1-1V21zm2 1.022v11.956c1.214-.057 2.815-.25 4.225-.876.909-.403 1.7-.97 2.265-1.76.56-.782.945-1.849.945-3.342s-.386-2.56-.945-3.342c-.565-.79-1.356-1.356-2.265-1.76-1.41-.625-3.011-.82-4.225-.876z" fill="#010101"/><path d="M59.538 46.071c0 2.207-2.094 4.828-1.396 6.76.698 2.206 3.91 3.034 5.166 4.69 1.256 1.793 1.116 5.103 2.931 6.345 1.815 1.241 4.886.138 6.98.827 2.094.69 3.91 3.449 6.143 3.449 2.233 0 4.048-2.759 6.142-3.449 2.094-.69 5.305.552 6.98-.827 1.815-1.242 1.536-4.552 2.932-6.346 1.256-1.793 4.467-2.62 5.165-4.69.698-2.069-1.396-4.552-1.396-6.759 0-2.207 2.094-4.828 1.396-6.76-.698-2.068-3.909-2.896-5.165-4.69-1.257-1.793-1.117-5.103-2.932-6.345-1.815-1.241-4.886-.138-6.98-.827C83.41 26.759 81.595 24 79.362 24c-2.234 0-4.049 2.759-6.143 3.449-2.094.69-5.304-.552-6.98.827-1.815 1.242-1.535 4.552-2.931 6.346-1.257 1.793-4.468 2.62-5.166 4.69-.698 1.931 1.396 4.552 1.396 6.759z" fill="#B69538"/><path fill-rule="evenodd" clip-rule="evenodd" d="M75.383 24.369c.96-.748 2.324-1.76 3.98-1.76 1.654 0 3.02 1.011 3.978 1.76.172.134.333.261.486.384.334.265.636.505.955.733.454.322.828.533 1.158.641.334.11.76.165 1.313.177.406.008.81-.006 1.258-.021.176-.006.358-.013.55-.018 1.205-.033 2.88-.047 4.21.863 1.37.937 1.889 2.564 2.225 3.728.067.232.127.448.184.654.108.388.205.742.324 1.103.176.531.352.926.552 1.21.19.272.49.555.928.88.328.243.673.467 1.057.717.139.09.283.183.433.282.99.653 2.394 1.608 2.921 3.151.281.788.255 1.576.132 2.263-.121.684-.357 1.362-.578 1.957-.066.179-.131.349-.193.513-.16.419-.305.8-.428 1.189-.168.53-.251.951-.251 1.296 0 .343.083.754.249 1.27.12.374.26.735.416 1.137.065.169.134.345.205.533.418 1.106.981 2.698.453 4.264-.524 1.552-1.932 2.51-2.926 3.166l-.433.282c-.384.25-.729.473-1.057.717-.438.324-.738.607-.928.879l-.042.056c-.213.274-.397.653-.573 1.168-.134.394-.242.797-.363 1.247-.04.153-.083.312-.129.479-.31 1.128-.78 2.756-2.128 3.71-1.299 1.033-3.036.998-4.226.95l-.638-.03a22.13 22.13 0 0 0-1.21-.04c-.564.001-.988.05-1.307.156-.33.109-.704.319-1.158.641-.32.228-.621.468-.955.733-.153.123-.314.25-.486.384-.959.749-2.324 1.76-3.979 1.76-1.655 0-3.02-1.011-3.979-1.76a65.648 65.648 0 0 1-.486-.383c-.333-.266-.635-.506-.955-.734-.453-.322-.827-.532-1.157-.641-.334-.11-.761-.165-1.313-.176-.407-.009-.811.005-1.258.02-.176.007-.359.013-.55.018-1.206.033-2.88.047-4.21-.863-1.37-.937-1.89-2.564-2.226-3.728a57.053 57.053 0 0 1-.184-.654 23.3 23.3 0 0 0-.324-1.102c-.171-.519-.343-.906-.536-1.19-.186-.238-.481-.496-.917-.804-.291-.206-.577-.388-.892-.589a50.68 50.68 0 0 1-.624-.403c-1.024-.675-2.406-1.66-2.926-3.268-.276-.783-.25-1.567-.128-2.25.122-.684.357-1.362.578-1.957l.194-.512c.16-.42.304-.8.427-1.19.168-.53.252-.951.252-1.296 0-.345-.084-.766-.252-1.296-.123-.39-.268-.77-.427-1.19-.063-.163-.127-.333-.194-.512-.22-.595-.456-1.273-.578-1.957-.122-.687-.148-1.475.133-2.263.527-1.543 1.93-2.498 2.92-3.151.15-.1.294-.192.433-.282.385-.25.729-.474 1.058-.718.437-.324.738-.607.928-.878.013-.02.027-.038.041-.057.214-.274.398-.653.573-1.168.135-.394.243-.796.363-1.247l.13-.478c.31-1.128.78-2.757 2.128-3.71 1.298-1.034 3.035-.998 4.225-.95.225.009.436.02.638.03.427.022.814.041 1.21.04.565-.002.988-.051 1.308-.157.33-.108.704-.319 1.157-.641.32-.228.622-.468.955-.733.154-.123.314-.25.486-.384zm.173 3.383c-.546.389-1.184.782-1.901 1.018-.728.24-1.49.294-2.169.296-.473.002-.984-.024-1.446-.047-.184-.01-.36-.018-.524-.025-1.343-.055-2.02.05-2.392.356a1.349 1.349 0 0 1-.099.074c-.428.294-.717.915-1.067 2.187l-.106.395c-.126.47-.268 1-.435 1.491-.218.64-.517 1.336-.99 1.952-.435.611-.998 1.095-1.53 1.489-.404.3-.853.591-1.257.853l-.358.234c-1.1.725-1.646 1.214-1.82 1.732l-.01.028c-.063.173-.09.431-.016.844.075.419.232.896.447 1.474l.161.426c.169.443.356.935.505 1.407.203.642.381 1.377.381 2.135 0 .759-.178 1.493-.38 2.135-.15.472-.337.964-.506 1.407l-.161.426c-.215.578-.372 1.055-.447 1.474-.073.413-.047.671.015.844l.018.054c.185.584.748 1.108 1.813 1.81.153.1.326.211.507.327.357.229.746.478 1.082.715.53.373 1.102.833 1.545 1.416l.032.043c.428.612.706 1.304.914 1.936.14.423.27.891.388 1.318.053.19.103.372.151.538.362 1.25.68 1.9 1.124 2.204.485.331 1.254.414 2.562.378l.46-.015c.472-.016.993-.035 1.483-.024.67.014 1.412.08 2.125.315.717.236 1.355.63 1.9 1.018.383.272.78.587 1.139.873.14.111.274.218.4.316 1.03.804 1.69 1.172 2.268 1.172.579 0 1.238-.368 2.268-1.172.126-.098.26-.205.4-.316.36-.286.756-.6 1.139-.873.546-.389 1.184-.782 1.9-1.018.728-.24 1.491-.294 2.17-.296.472-.002.983.024 1.446.047.184.01.36.019.523.025 1.343.055 2.02-.05 2.392-.356.032-.026.065-.051.1-.074.428-.294.717-.915 1.066-2.187l.107-.395c.126-.47.267-1 .435-1.491.218-.64.517-1.336.99-1.952.435-.611.997-1.095 1.529-1.489.404-.3.853-.59 1.257-.853.125-.08.245-.16.359-.234 1.1-.724 1.646-1.214 1.82-1.731.17-.504.035-1.188-.42-2.392-.051-.137-.108-.284-.167-.437-.166-.429-.351-.907-.498-1.363-.205-.635-.384-1.362-.384-2.123 0-.758.178-1.493.381-2.135.15-.472.337-.964.505-1.407l.161-.426c.215-.578.373-1.055.447-1.474.074-.413.048-.67-.015-.844l-.002-.005-.008-.023c-.174-.518-.72-1.007-1.82-1.732a62.518 62.518 0 0 0-.359-.234c-.404-.262-.853-.553-1.257-.853-.54-.4-1.112-.893-1.55-1.518-.429-.612-.706-1.304-.915-1.936-.14-.423-.27-.891-.387-1.318-.053-.19-.104-.372-.152-.537-.361-1.251-.68-1.9-1.124-2.205-.485-.331-1.254-.414-2.561-.378l-.46.015c-.473.017-.994.035-1.484.024-.67-.014-1.412-.08-2.125-.315-.716-.236-1.354-.63-1.9-1.018a27.794 27.794 0 0 1-1.138-.873 57.81 57.81 0 0 0-.4-.316c-1.03-.804-1.69-1.172-2.269-1.172-.578 0-1.238.368-2.268 1.172-.126.098-.26.205-.4.316-.36.286-.756.6-1.138.873z" fill="#010101"/><path d="M78.31 52.462h2.901c.77 0 1.508-.304 2.052-.845a2.872 2.872 0 0 0 0-4.075 2.911 2.911 0 0 0-2.052-.844h-2.9a5.822 5.822 0 0 1-4.104-1.688 5.744 5.744 0 0 1-1.7-4.075c0-1.53.612-2.995 1.7-4.076a5.822 5.822 0 0 1 4.103-1.688V33.73c0-.382.153-.749.425-1.019a1.455 1.455 0 0 1 2.052 0c.272.27.424.637.424 1.019v1.44c1.54 0 3.015.608 4.103 1.689a5.744 5.744 0 0 1 1.7 4.075c0 .383-.153.75-.425 1.02a1.456 1.456 0 0 1-2.052 0 1.436 1.436 0 0 1-.424-1.02c0-.764-.306-1.497-.85-2.037a2.911 2.911 0 0 0-2.052-.844h-2.9c-.77 0-1.508.303-2.052.844a2.872 2.872 0 0 0 0 4.075c.544.54 1.282.844 2.051.844h2.901c1.54 0 3.015.607 4.103 1.688a5.744 5.744 0 0 1 1.7 4.076 5.744 5.744 0 0 1-1.7 4.075 5.822 5.822 0 0 1-4.103 1.688v1.441c0 .382-.152.749-.424 1.02a1.456 1.456 0 0 1-2.052 0 1.436 1.436 0 0 1-.425-1.02v-1.44a5.822 5.822 0 0 1-4.103-1.689 5.744 5.744 0 0 1-1.7-4.075c0-.382.154-.749.426-1.02a1.456 1.456 0 0 1 2.051 0c.272.271.425.638.425 1.02 0 .764.306 1.497.85 2.038.544.54 1.282.844 2.051.844z" fill="#010101"/></svg>
